X:1
T: Chopin
T:Nocturne Opus 9 No. 2
T:E♭ Major 
%%score { ( 1 3 ) | 2 }
L:1/8
Q:1/8=105
M:12/8
K:Eb
V:1 treble nm="Piano"
V:3 treble 
V:2 bass 
V:1
"^Andante \n(\n)\n""^B♭" !None!B |"^G" g3-"^G" g"^F"f"^G"g"^F" f3"^E♭" e2"^B♭" B | %2
"^G" g2"^D♭" _d/4"^C"c/4"^B♮"=B/4"^C"c/4"^C" c'2"^G" g"^B♭" b3"^A♭" a2"^G" g | %3
"^F" f3"^G" g2"^D" d"^E♭" e3"^C" c3 | %4
"^B♭" B"^D"d'"^C"c'"^B♭" b/"^A♭"a/"^G"g/"^A♭"a/"^C"c/"^D"d/"^E♭" e3 z2"^B♭" B | %5
"^G" g3"^F" f/"^G"g/"^F"f/"^E♮"=e/"^F"f/"^G"g/"^F" f"^E♭" _e2-"^E♭" e/"^F"f/"^E♭"e/"^D"d/"^E♭"e/"^F"f/ | %6
"^G" g/"^B♮"=B/"^C"c/"^D♭"_d/"^C"c/"^F"f/"^E♮" =e/"^A♭"a/"^G"g/"^D♭"_d'/"^C"c'/"^G"g/"^B♭" _b3"^A♭" a2"^G" g | %7
"^F""^G" !trill(!Tf3"^G" g"^G"g"^D"d"^E♭" _e3"^C" c3 | %8
"^B♭" B"^D"d'"^C"c'"^B♭" b/"^A♭"a/"^G"g/"^A♭"a/"^C"c/"^D"d/"^E♭\nG" [Ge]3-"^E♭\nG" [Ge]2 z |] %9
V:2
 z |"^E♭" E,"^G"G,"^B♭"B,"^E♭" E,"^A♭"A,"^C♭"_C"^E♭" E,"^G"G,"^B♭"B,"^D" D,"^G"G,"^B♭"B, | %2
"^C" C,"^G"G,"^B♭"B,"^C" C,"^G"G,"^C"C"^F" F,"^B♭"B,"^D♭"_D"^F" F,"^A♭"A,"^C"C | %3
"^B♭" B,,"^F"F,"^B♭"B,"^B♮" =B,,"^D"D,"^F"F,"^C" C,"^G"G,"^C"C"^A♮" =A,,"^E♭"E,"^G♭"_G, | %4
"^B♭" B,,"^F"F,"^B♭"B,"^B♭" B,,"^F"F,"^B♭"B,"^E♭" E,"^G"G,"^B♭"B,"^E♭" E,"^G"G,"^B♭"B, | %5
"^E♭" E,"^G"G,"^B♭"B,"^E♭" E,"^A♭"A,"^C♭"_C"^E♭" E,"^G"G,"^B♭"B,"^D" D,"^G"G,"^B♭"B, | %6
"^C" C,"^G"G,"^B♭"B,"^C" C,"^G"G,"^C"C"^F" F,"^B♭"B,"^D♭"_D"^F" F,"^A♭"A,"^C"C | %7
"^B♭" B,,"^F"F,"^B♭""^B♭"B,"^B♮" =B,,"^D"D,"^F"F,"^C" C,"^G"G,"^C"C"^A♮" =A,,"^E"E,"^G♭"_G, | %8
"^B♭" B,,"^F"F,"^B♭"B,"^B♭" B,,"^F"F,"^B♭"B,"^E♭" E,"^G"G,"^B♭"B,-"^E♭\nB♭" [E,B,]2 z |] %9
V:3
 x | x12 | x12 | x12 | x4 z8 | x12 | x12 | %7
 !stemless!g/8"^F" !stemless!f/8"^G" !stemless!g/8"^F" !stemless!f/8"^G" !stemless!g/8"^F" !stemless!f/8"^G" !stemless!g/8"^F" !stemless!f/8"^G" !stemless!g/8"^F" !stemless!f/8"^G" !stemless!g/8"^F" !stemless!f/8"^G" !stemless!g/8"^F" !stemless!f/8"^G" !stemless!g/8"^F" !stemless!f/8"^G" !stemless!g/8"^F" !stemless!f/8"^G" !stemless!g/8"^F" !stemless!f/8"^G" !stemless!g/8"^F" !stemless!f/8"^E♮" !trill)!=e/8"^F"f/8 x9 | %8
 x12 |] %9

